brandFactory_export/2.Regular/Chip_Equipo_2Regular.svg

<?xml version="1.0" encoding="UTF-8"?>
<svg width="24px" height="24px" viewBox="0 0 24 24" version="1.1" xmlns="http://www.w3.org/2000/svg" xmlns:xlink="http://www.w3.org/1999/xlink">
    <title>2.Regular/Chip_Equipo_2Regular</title>
    <g id="Symbols" stroke="none" stroke-width="1" fill="none" fill-rule="evenodd">
        <g id="2.Regular/Chip_Equipo_2Regular" fill="#5CB615" fill-rule="nonzero">
            <path d="M14.5378151,1.98951966e-13 C15.8655462,1.98951966e-13 16.8302521,0.32605042 17.4823529,0.998319328 C18.1243697,1.65714286 18.4369748,2.62184874 18.4369748,3.94957983 L18.4368067,5.415 L20.4840336,5.41512605 C21.3176471,5.41512605 21.8554622,5.95294118 21.8554622,6.78655462 L21.8554622,15.2067227 C21.8521008,16.0369748 21.3142857,16.5747899 20.4840336,16.5747899 L18.4368067,16.574 L18.4369748,19.6806723 C18.4369748,22.3394958 17.1596639,23.6302521 14.5378151,23.6302521 L5.91596639,23.6302521 C3.2907563,23.6302521 2.01680672,22.3394958 2.01680672,19.6806723 L2.01680672,3.94957983 C2.01680672,1.32773109 3.32773109,1.98951966e-13 5.91596639,1.98951966e-13 L14.5378151,1.98951966e-13 Z M14.5378151,1.34453782 L5.91596639,1.34453782 C4.07731092,1.34453782 3.36134454,2.07394958 3.36134454,3.94957983 L3.36134454,19.6806723 C3.36134454,20.6487395 3.54957983,21.3109244 3.93613445,21.7042017 C4.32268908,22.097479 4.96806723,22.2857143 5.91596639,22.2857143 L14.5378151,22.2857143 C15.4857143,22.2857143 16.1310924,22.0941176 16.5176471,21.7042017 C16.9042017,21.3142857 17.092437,20.6487395 17.092437,19.6806723 L17.0918067,16.574 L15.005042,16.5747899 C14.1714286,16.5747899 13.6336134,16.0369748 13.6336134,15.2033613 L13.6336134,7.8789916 C13.6336134,7.7210084 13.707563,7.5697479 13.8352941,7.47563025 L16.4571429,5.51596639 C16.5445378,5.45210084 16.6521008,5.41512605 16.7596639,5.41512605 L17.0918067,5.415 L17.092437,3.94957983 C17.092437,2.99159664 16.9042017,2.32941176 16.5210084,1.93613445 C16.1378151,1.54285714 15.4857143,1.34453782 14.5378151,1.34453782 Z M10.215126,18.3697479 C10.907563,18.3697479 11.3579832,18.7327731 11.3613445,19.5193277 C11.3613445,19.8957983 11.2571429,20.1781513 11.0722689,20.3663866 C10.8705882,20.5714286 10.5781513,20.6689076 10.215126,20.6689076 C9.85210084,20.6689076 9.55966387,20.5714286 9.35798319,20.3663866 C9.17310924,20.1747899 9.06890756,19.8957983 9.06890756,19.5193277 C9.06890756,18.7361345 9.52268908,18.3697479 10.215126,18.3697479 Z M20.4840336,6.42352941 L16.9277311,6.42352941 L14.6420168,8.13109244 L14.6420168,15.2033613 C14.6420168,15.4857143 14.7226891,15.5663866 15.005042,15.5663866 L20.4840336,15.5663866 C20.7663866,15.5663866 20.8470588,15.4857143 20.8470588,15.2033613 L20.8470588,6.78655462 C20.8470588,6.50420168 20.7663866,6.42352941 20.4840336,6.42352941 Z M19.7815126,9.82857143 C19.9663866,9.82857143 20.1176471,9.97983193 20.1176471,10.1647059 L20.1176471,14.4168067 C20.1176471,14.605042 19.9663866,14.7529412 19.7815126,14.7529412 L15.7310924,14.7529412 C15.5462185,14.7529412 15.394958,14.6016807 15.394958,14.4168067 L15.394958,10.1647059 C15.394958,9.97983193 15.5462185,9.82857143 15.7310924,9.82857143 L19.7815126,9.82857143 Z M16.7428067,13.405 L16.0688067,13.405 L16.0705882,14.0806723 L16.7428067,14.08 L16.7428067,13.405 Z M18.0898067,13.405 L17.4148067,13.405 L17.4148067,14.08 L18.0898067,14.08 L18.0898067,13.405 Z M19.4448067,13.405 L18.7628067,13.405 L18.7628067,14.08 L19.4453782,14.0806723 L19.4448067,13.405 Z M16.0678067,11.848 L16.0688067,12.732 L19.4448067,12.732 L19.4448067,11.848 L16.0678067,11.848 Z M16.7428067,10.5 L16.0672269,10.5008403 L16.0678067,11.176 L16.7428067,11.176 L16.7428067,10.5 Z M18.0898067,10.5 L17.4148067,10.5 L17.4148067,11.176 L18.0898067,11.176 L18.0898067,10.5 Z M19.4453782,10.5008403 L18.7628067,10.5 L18.7628067,11.176 L19.4448067,11.176 L19.4453782,10.5008403 Z" id="Chip_Equipo_2Regular"></path>
        </g>
    </g>
</svg>

<svg width="24" height="24" viewBox="0 0 24 24" xmlns="http://www.w3.org/2000/svg"><path d="M14.538 0c1.328 0 2.292.326 2.944.998.642.66.955 1.624.955 2.952v1.465h2.047c.834 0 1.371.538 1.371 1.372v8.42c-.003.83-.54 1.368-1.371 1.368l-2.047-.001v3.107c0 2.658-1.277 3.95-3.9 3.95H5.917c-2.625 0-3.9-1.292-3.9-3.95V3.95c0-2.622 1.312-3.95 3.9-3.95h8.622zm0 1.345H5.916c-1.839 0-2.555.729-2.555 2.605v15.73c0 .969.189 1.63.575 2.024.387.393 1.032.582 1.98.582h8.622c.948 0 1.593-.192 1.98-.582.386-.39.574-1.055.574-2.023v-3.107h-2.087c-.834 0-1.371-.537-1.371-1.37V7.878c0-.158.074-.31.201-.403l2.622-1.96a.519.519 0 01.303-.1l.332-.001V3.95c0-.958-.188-1.62-.571-2.014-.383-.393-1.035-.591-1.983-.591zM10.215 18.37c.693 0 1.143.363 1.146 1.15 0 .376-.104.658-.289.846-.201.205-.494.303-.857.303s-.655-.098-.857-.303c-.185-.191-.29-.47-.29-.847 0-.783.455-1.15 1.147-1.15zM20.484 6.424h-3.556L14.642 8.13v7.072c0 .283.08.363.363.363h5.479c.282 0 .363-.08.363-.363V6.787c0-.283-.08-.363-.363-.363zm-.702 3.405c.184 0 .336.15.336.336v4.252a.335.335 0 01-.336.336h-4.05a.337.337 0 01-.337-.336v-4.252c0-.185.151-.336.336-.336h4.05zm-3.04 3.576h-.673l.002.676.672-.001v-.675zm1.348 0h-.675v.675h.675v-.675zm1.355 0h-.682v.675h.682v-.675zm-3.377-1.557v.884h3.377v-.884h-3.377zm.675-1.348h-.676v.676h.676V10.5zm1.347 0h-.675v.676h.675V10.5zm1.355 0h-.682v.676h.682v-.675z" fill="#5CB615" fill-rule="nonzero"/></svg>
